X:1
T:Title
%%score { ( 1 3 5 ) | ( 2 4 ) }
L:1/8
Q:1/4=100
M:4/4
K:G
V:1 treble nm="Grand Piano"
V:3 treble 
V:5 treble 
V:2 bass 
V:4 bass 
V:1
 [B,DB]2 [B,^DB]2 [B,EB]2 [B,FB]2 | [B,GB]>[B,A] [B,G]>[B,E] [B,D]4 | d2 d2 c2 B2 | A6 z2 | %4
w: J.~Lincoln~Hall * * *||||
 [B,DB]2 [B,^DB]2 [B,EB]2 [B,FB]2 | [B,GB]>[B,A] [B,G]>[B,E] [B,D]4 | [^CA]2 [CA]2 [Ge]2 [Ge]2 | %7
w: |||
[M:3/4] [Fd]2 d2 d2 |[M:1/4][K:bass] D,>G, |[M:4/4][K:treble] z4 B2 z2 | %10
w: |||
 [DGB]2 B2 B2[K:bass] D,>G, | c2 c2 c2[K:bass] D,>A, | B2 B2 B2 D>G | B6 z2 | z2 B,2 B,2 d>d | %15
w: |||||
 ^c6 z2 | d6 z2 | d2 z2 d2 c2 | B2 z2 z4 | c2 z2 z4 | B2 B2 B2 D>G | B6 z2 | e2 d2 c2 [FA]2 | %23
w: ||||||||
 d4 z4 | [G,B,DG]6 z2 |] %25
w: ||
V:2
 [G,,D,]2 [G,,^D,]2 [G,,E,]2 [G,,F,]2 | [G,,G,]>[G,,G,] [G,,G,]>[G,,G,] [G,,G,]4 | %2
 [B,DG]2 [B,DG]2 [A,DF]2 [G,DG]2 | [F,D]2 [E,^C]2 D,C,B,,A,, | %4
 [G,,D,]2 [G,,^D,]2 [G,,E,]2 [G,,F,]2 | [G,,G,]>[G,,G,] [G,,G,]>[G,,G,] [G,,G,]4 | %6
 [A,,G,]2 [A,,G,]2 [A,,A,]2 [A,,A,]2 |[M:3/4] z2[K:treble] .[FA]2 .[FA]2 |[M:1/4] z2 | %9
[M:4/4] [DG]2 [DG]2 [DG]2[K:bass] E,>G, | z2[K:treble] [DG]2 [DG]2 z2 | [DF]2 [DF]2 [DF]2 z2 | %12
 [DG]2 [DG]2 [DG]2 z2 | G,,2 [D,G,]2 [D,G,]2 [E,G,C]2 | G,,2 [D,G,]2 [D,G,]2[K:treble] B>B | %15
 A6[K:bass][K:treble] z2 | F6[K:bass][K:treble] z2 | G,,2 [D,G,B,]2 [D,G,B,]2 [E,G,CE]2 | %18
 G,,2 [D,G,B,]2 [D,G,B,]2 z2 | [D,A,]2 [D,A,]2 [D,A,]2 z2 | G6 z2 | %21
 [G,DG]2 [G,D]2 [G,D][G,DG][A,DF][B,DG] | [CG]2 [B,DG]2 [A,DF]2[K:bass] [D,D]2 | %23
 [G,B,]2 z[K:treble] c[K:bass] D,2 D,2 | G,,6 z2 |] %25
V:3
 x8 | x8 | x8 | z2 G2 [DF]4 | x8 | x8 | x8 |[M:3/4] x6 |[M:1/4][K:bass] x2 | %9
[M:4/4][K:treble] B2 B2 z G, [EGc]2 | x6[K:bass] x2 | x6[K:bass] x2 | x8 | z2 B,2 z G E>G | D6 z2 | %15
 z2 A,2 A,2 e>e | z2 A,2 A,2 z2 | B2- [B-d]2 BG z z/ G/ | D2- [D-B]2 [DB]2 D>G | %19
 F2- [F-c]2 [Fc]2 D>A | x8 | z2 G2 GBcd | x8 | G2 [EG]2 [DGB]2 [CFA]2 | x8 |] %25
V:4
 x8 | x8 | x8 | x8 | x8 | x8 | x8 |[M:3/4] [D,A,]6[K:treble] |[M:1/4] x2 |[M:4/4] B,6[K:bass] z2 | %10
 D,6[K:treble] z2 | F,6 z2 | G,6 z2 | x8 | x6[K:treble] x2 | z2[K:bass] A,,2 A,,2[K:treble] G>G | %16
 z2[K:bass] D,2 D,2[K:treble] D>G | x8 | x8 | x8 | [G,D]2 [G,D]2 [G,D]2 [G,B,]>[G,B,D] | x8 | %22
 x6[K:bass] x2 | z2 C,2[K:treble][K:bass] z4 | x8 |] %25
V:5
 x8 | x8 | x8 | x8 | x8 | x8 | x8 |[M:3/4] x6 |[M:1/4][K:bass] x2 |[M:4/4][K:treble] x8 | %10
 x6[K:bass] x2 | x6[K:bass] x2 | x8 | z4 B,2 z2 | x8 | x8 | x8 | x8 | x8 | x8 | x8 | x8 | x8 | x8 | %24
 x8 |] %25

